X:1
T:James Gibb editions
T:Adoramus te - Ruffo
T:#
%%score [ 1 2 3 4 ]
L:1/8
Q:1/4=100
M:2/2
K:G
V:1 treble nm="Soprano" snm="S"
V:2 treble nm="Alto" snm="A"
V:3 treble-8 nm="Tenor" snm="T"
V:4 bass nm="Bass" snm="B"
V:1
"^Vincenzo Ruffo\n(1510-87)""^Adoramus te, Christe" B4 B4 | B8 | A8 | A8 | (B4 G4 | A8) | ^G8 | %7
w: A- do-|ra-|mus|te|Chri\- *||ste,|
 z4 ^G4 | A6 A2 | B4 B4 | B8 | (c6 B2 |[M:2/2] c2 B4 A2) | B8 | B8 | c4 c4 | B4 A4 | A8 | ^G4 A4 | %19
w: et|be- ne-|di- ci-|mus|ti\- *||bi:|qui-|a per|san- ctam|cru-|cem tu-|
 B4 z2 B2 | c6 c2 | c4 B4 | A8 | ^G8 | A6 A2 | B4 c4 | (B2 A4 ^G2) | A8 | B8- | B4 A4 | ^G8 | %31
w: am et|pas- si-|o- nem|tu-|am,|re- de-|mi- sti|mun- * *|dum.|Do\-|* mi-|ne,|
 z4 B4- | B2 B2 c4 | B6 B2 | B4 A4 | (A8 | G4 B4) | !fermata!B8 |] %38
w: Do\-|* mi- ne,|mi- se-|re- re|no\-||bis.|
V:2
 G4 G4 | G8 | F8 | (E6 F2 | G2 D2) (E4- | E2 DC D4) | E8 | z4 E4 | E6 E2 | G4 G4 | F8 | (A6 G2 | %12
w: A- do-|ra-|mus|te *|* * Chri\-||ste,|et|be- ne-|di- ci-|mus|ti\- *|
[M:2/2] A2 G4 FE) | F8 | ^G8 | A4 =G4 | G4 E4 | =F8 | E4 E4 | G4 z2 G2 | G6 G2 | A4 G4 | %22
w: |bi:|qui-|a per|san- ctam|cru-|cem tu-|am et|pas- si-|o- nem|
 (=F2 E4 D2) | E8 | E8 | G4 G4- | G2 E2 E4 | E8 | (G8 | D2 E4) D2 | E8 | z4 ^G4- | G2 ^G2 A4 | %33
w: tu\- * *|am,|re-|de- mi\-|* sti mun-|dum.|Do\-|* * mi-|ne,|Do\-|* mi- ne,|
 F6 F2 | =G4 E4 | (=F8 | E4 G4) | !fermata!^F8 |] %38
w: mi- se-|re- re|no\-||bis.|
V:3
 e4 e4 | d8 | d8 | c8 | (B6 c2- | cBAG A4) | B8 | z4 B4 | c6 c2 | d4 e4 | ^d8 | (e8 | %12
w: A- do-|ra-|mus|te|Chri\- *||ste,|et|be- ne-|di- ci-|mus|ti\-|
[M:2/2][K:treble-8] c2 =d2 e4) | ^d8 | e8 | e4 e4 | =d4 c4 | d8 | B4 c4 | d4 z2 d2 | e6 e2 | %21
w: |bi:|qui-|a per|san- ctam|cru-|cem tu-|am et|pas- si-|
 e4 e4 | (c4 A4) | B8 | c6 c2 | d4 e4 | (d2 c2 B4) | ^c8 | (d8 | B4 c2) A2 | B8 | z4 e4- | %32
w: o- nem|tu\- *|am,|re- de-|mi- sti|mun- * *|dum.|Do\-|* * mi-|ne,|Do\-|
 e2 e2 e4 | ^d6 d2 | e4 c4 | (=d6 c2 | B4 e4) | !fermata!^d8 |] %38
w: * mi- ne,|mi- se-|re- re|no\- *||bis.|
V:4
 E,4 E,4 | G,8 | D,8 | A,8 | (G,4 E,4 | =F,8) | E,8 | z4 E,4 | A,6 A,2 | G,4 E,4 | B,8 | (A,6 E,2 | %12
w: A- do-|ra-|mus|te|Chri\- *||ste,|et|be- ne-|di- ci-|mus|ti\- *|
[M:2/2] A,2 B,2 C4) | B,8 | E,8 | A,4 C4 | G,4 A,4 | D,8 | E,4 A,4 | G,4 z2 G,2 | C6 C2 | A,4 E,4 | %22
w: |bi:|qui-|a per|san- ctam|cru-|cem tu-|am et|pas- si-|o- nem|
 =F,8 | E,8 | A,6 A,2 | G,4 C4 | (G,2 A,2 E,4) | A,8 | G,8- | G,4 =F,4 | E,8 | z4 E,4- | %32
w: tu-|am,|re- de-|mi- sti|mun- * *|dum.|Do\-|* mi-|ne,|Do\-|
 E,2 E,2 A,4 | B,6 B,2 | E,4 A,4 | (D,8 | E,8) | !fermata!B,8 |] %38
w: * mi- ne,|mi- se-|re- re|no\-||bis.|

